X:1
T:Title
%%score ( 1 2 ) { 3 | 4 }
L:1/8
Q:1/4=100
M:2/4
K:G
V:1 treble nm="Grand Piano, Soprano"
V:2 treble 
V:3 bass nm="Choir Pad, Tell It Far and Wide"
V:4 bass 
V:1
 DD [DG][DG] | [GB][GB] [Gd][DB] | [DA][DG] [CE]2 | [EG]2 [B,D]2 | DD [DF][DF] | %5
w: By~William~A.~May * * *|||||
 [FA][FA] [Fc][FA] | [DF]D [DG]2 | [DA]2 [DB]2 | [GB][GB] [Gd][GB] | [DA][DG] [EA][EG] | %10
w: |||||
 [DF][CE] D2 | E-[EB] [Dd]2 | [Ec][Ec] [DB][GB] | [Gc][GB] [FA][FA] | [FB][FA] [DG]2 | %15
w: |||||
 [EG]2 [DG]2 | [Gd][Gd] [Gd][GB] | [Gd]4 | [GB][GB] [GB][DG] | [GB]4 | [Gd][Gd] [Ge][Gd] | %21
w: ||||||
 [Fc][GB] [Fd][Fc] | [DB][CA] [B,G]2 | [DA]2 [DB]2 | [Gd][Gd] [Gd][GB] | [Gd]4 | %26
w: |||||
 [GB][GB] [GB][DG] | [GB]4 | [Gd][Gd] [Ge][Gd] | [Fc][GB] [Fd][Fc] | [FB][DA] [DG]2 | %31
w: |||||
 [DA]2 [DG]2- | [DG]4- | [DG]2 z2 |] %34
w: |||
V:2
 x4 | x4 | x4 | x4 | x4 | x4 | x4 | x4 | x4 | x4 | x4 | .G2 z2 | x4 | x4 | x4 | x4 | x4 | x4 | x4 | %19
 x4 | x4 | x4 | x4 | x4 | x4 | x4 | x4 | x4 | x4 | x4 | x4 | x4 | x4 | x4 |] %34
V:3
 B,B, B,B, | DD B,G, | F,F, G,2 | G,2 G,2 | B,B, A,A, | DD A,C | B,[K:bass]F, G,2 | F,2 G,2 | %8
 D[K:treble]D B,D | CB, CC | G,G, G,2 | G,2 G,2 | G,G, G,[K:treble]D | ED CC | DD[K:bass] B,2 | %15
 C2 B,2 | B,B, B,[K:treble]D | B,4 | DD DB, | D4 | B,D CD | DD D[K:bass]A, | G,F, G,2 | F,2 G,2 | %24
 B,B, B,[K:treble]D | B,4 | DD DB, | D4 | B,D CD | DD DA, | DC[K:bass] B,2 | C2 B,2- | B,4- | %33
 B,2 z2 |] %34
V:4
 G,G, G,,G,, | G,,G,, G,,G,, | A,,B,, C,2 | C,2 z2 | G,,G,, D,D, | D,D, D,D, | D,C, B,,2 | %7
 D,2 G,,2 | G,G, G,G, | G,G, C,C, | C,C, B,,2 | E,2 B,,2 | C,C, D,D, | D,D, D,D, | D,D, G,2 | %15
 G,2 G,2 | G,G, G,G, | G,4 | G,G, G,G, | G,4 | G,B, z B, | A,G, D,D, | D,D, E,2 | D,2 G,,2 | %24
 G,G, G,G, | G,4 | G,G, G,G, | G,4 | G,B, z B, | A,G, D,D, | D,D, D,2 | D,2 G,,2- | G,,4- | %33
 G,,2 z2 |] %34

